X: 127
T: Mogą rzec Pańscy wybrani:
C: Mikołaj Gomółka
%%abc-version 2.0
%%abcx-abcm2ps-target-version 5.9.1 (29 Sep 2008)
%%abc-creator hum2abc beta
%%abcx-conversion-date 2021/10/04 07:59:09
%%abc-edited-by Marta Lawrence
%%abcx-initial-encoding-date 2020-02-21
%%humdrum-veritas 1947979612
%%humdrum-veritas-data 797548977
%%linebreak <none>
%%barnumbers 0
L: 1/4
M: C|
N: Derived from pl-wn--sd-xvi-qu-273--129_gomolka-mikolaj--moga-rzec-panscy-wybrani.krn
%%staves [1 2 3 4]
V: 1
V: 2 clef=alto
V: 3 clef=alto
V: 4 clef=bass
K: F
[V:1] G4F2G2 [|] 
[V:2] D4D3C [|] 
[V:3] B,4A,2B,C [|] 
[V:4] G,,4D,2G,,2 [|] 
[V:1] B4A2A4 [|] 
[V:2] B,2>C2DEFE [|] 
[V:3] D4D3C [|] 
[V:4] G,2G,4^F,2 [|] 
[V:1] G2A2D2 [|] 
[V:2] D2>E2F2D2 [|] 
[V:3] B,4A,2A,2 [|] 
[V:4] G,2G,,2D,2D,2 [|] 
[V:1] F6F2 [|] 
[V:2] D6D2 [|] 
[V:3] A,4A,2B,A, [|] 
[V:4] D,6B,,2 [|] 
[V:1] _E2D4C2 [|] 
[V:2] C2B,A,G,F,B,2 [|] 
[V:3] G,2^F,2G,4 [|] 
[V:4] C,2D,2E,4 [|] 
[V:1] D2A2A2A2 [|] 
[V:2] ^F,2A,2A,2A,2 [|] 
[V:3] A,2F2E2D2 [|] 
[V:4] D,2D,2A,2^F,2 [|] 
[V:1] d4^c2d2 [|] 
[V:2] B,2B2A2A2 [|] 
[V:3] D2GFE2D3 [|] 
[V:4] G,4A,2D,2 [|] 
[V:1] B6A2 [|] 
[V:2] G2D4A,2 [|] 
[V:3] CB,A,B,CD4 [|] 
[V:4] G,2G,4^F,2 [|] 
[V:1] G4F2D2 [|] 
[V:2] B,2>C2DEF2 [|] 
[V:3] G,2A,2D2 [|] 
[V:4] G,2G,,2D,2B,,2 [|] 
[V:1] =EFG4F2 [|] 
[V:2] _E2=E2D3C [|] 
[V:3] C2>B,2A,G,A,2 [|] 
[V:4] C,2C,2D,4 [|] 
[V:1] G32 |]  
[V:2] B,32 |]  
[V:3] G,32 |]  
[V:4] G,,32 |]  


